img/logo-mask.svg

<?xml version="1.0" encoding="UTF-8" standalone="no"?>
<svg width="290px" height="290px" viewBox="0 0 290 290" version="1.1" xmlns="http://www.w3.org/2000/svg" xmlns:xlink="http://www.w3.org/1999/xlink">
    <!-- Generator: Sketch 41.2 (35397) - http://www.bohemiancoding.com/sketch -->
    <title>logo-mask</title>
    <desc>Created with Sketch.</desc>
    <defs>
        <linearGradient x1="0%" y1="0%" x2="0%" y2="100%" id="linearGradient-1">
            <stop stop-color="#000000" offset="0%"></stop>
            <stop stop-color="#000000" offset="100%"></stop>
        </linearGradient>
        <rect id="path-2" x="0" y="0" width="256" height="256" rx="35"></rect>
        <filter x="-50%" y="-50%" width="200%" height="200%" filterUnits="objectBoundingBox" id="filter-3">
            <feMorphology radius="0.5" operator="dilate" in="SourceAlpha" result="shadowSpreadOuter1"></feMorphology>
            <feOffset dx="0" dy="8" in="shadowSpreadOuter1" result="shadowOffsetOuter1"></feOffset>
            <feMorphology radius="15.5" operator="erode" in="SourceAlpha" result="shadowInner"></feMorphology>
            <feOffset dx="0" dy="8" in="shadowInner" result="shadowInner"></feOffset>
            <feComposite in="shadowOffsetOuter1" in2="shadowInner" operator="out" result="shadowOffsetOuter1"></feComposite>
            <feGaussianBlur stdDeviation="5" in="shadowOffsetOuter1" result="shadowBlurOuter1"></feGaussianBlur>
            <feColorMatrix values="0 0 0 0 0.117647059   0 0 0 0 0.117647059   0 0 0 0 0.117647059  0 0 0 0.4 0" type="matrix" in="shadowBlurOuter1" result="shadowMatrixOuter1"></feColorMatrix>
            <feOffset dx="0" dy="2" in="SourceAlpha" result="shadowOffsetOuter2"></feOffset>
            <feMorphology radius="15" operator="erode" in="SourceAlpha" result="shadowInner"></feMorphology>
            <feOffset dx="0" dy="2" in="shadowInner" result="shadowInner"></feOffset>
            <feComposite in="shadowOffsetOuter2" in2="shadowInner" operator="out" result="shadowOffsetOuter2"></feComposite>
            <feGaussianBlur stdDeviation="2.5" in="shadowOffsetOuter2" result="shadowBlurOuter2"></feGaussianBlur>
            <feColorMatrix values="0 0 0 0 0.149019608   0 0 0 0 0.149019608   0 0 0 0 0.149019608  0 0 0 0.35 0" type="matrix" in="shadowBlurOuter2" result="shadowMatrixOuter2"></feColorMatrix>
            <feMerge>
                <feMergeNode in="shadowMatrixOuter1"></feMergeNode>
                <feMergeNode in="shadowMatrixOuter2"></feMergeNode>
            </feMerge>
        </filter>
        <mask id="mask-4" maskContentUnits="userSpaceOnUse" maskUnits="objectBoundingBox" x="0" y="0" width="256" height="256" fill="white">
            <use xlink:href="#path-2"></use>
        </mask>
    </defs>
    <g id="Page-1" stroke="none" stroke-width="1" fill="none" fill-rule="evenodd">
        <g id="logo-mask">
            <g id="Group" transform="translate(17.000000, 17.000000)">
                <path d="M0,34.992057 C0,15.6664776 15.676529,0 34.992057,0 L221.007943,0 C240.333522,0 256,15.676529 256,34.992057 L256,221.007943 C256,240.333522 240.323471,256 221.007943,256 L34.992057,256 C15.6664776,256 0,240.323471 0,221.007943 L0,34.992057 Z M68,160 C85.673112,160 100,145.673112 100,128 C100,110.326888 85.673112,96 68,96 C50.326888,96 36,110.326888 36,128 C36,145.673112 50.326888,160 68,160 Z M188,160 C205.673112,160 220,145.673112 220,128 C220,110.326888 205.673112,96 188,96 C170.326888,96 156,110.326888 156,128 C156,145.673112 170.326888,160 188,160 Z" id="Combined-Shape" fill="url(#linearGradient-1)"></path>
                <g id="Combined-Shape">
                    <use fill="black" fill-opacity="1" filter="url(#filter-3)" xlink:href="#path-2"></use>
                    <use stroke-opacity="0.3" stroke="#FFFFFF" mask="url(#mask-4)" stroke-width="30" xlink:href="#path-2"></use>
                </g>
            </g>
        </g>
    </g>
</svg>

<svg xmlns="http://www.w3.org/2000/svg" viewBox="0 0 290 290" xmlns:xlink="http://www.w3.org/1999/xlink">
  <title>
    logo-mask
  </title>
  <defs>
    <linearGradient id="b" x1="0%" x2="0%" y1="0%" y2="100%">
      <stop offset="0%"/>
      <stop offset="100%"/>
    </linearGradient>
    <rect id="a" width="256" height="256" rx="35"/>
    <filter id="c" width="200%" height="200%" x="-50%" y="-50%" filterUnits="objectBoundingBox">
      <feMorphology radius=".5" operator="dilate" in="SourceAlpha" result="shadowSpreadOuter1"/>
      <feOffset dy="8" in="shadowSpreadOuter1" result="shadowOffsetOuter1"/>
      <feMorphology radius="15.5" in="SourceAlpha" result="shadowInner"/>
      <feOffset dy="8" in="shadowInner" result="shadowInner"/>
      <feComposite in="shadowOffsetOuter1" in2="shadowInner" operator="out" result="shadowOffsetOuter1"/>
      <feGaussianBlur stdDeviation="5" in="shadowOffsetOuter1" result="shadowBlurOuter1"/>
      <feColorMatrix values="0 0 0 0 0.117647059 0 0 0 0 0.117647059 0 0 0 0 0.117647059 0 0 0 0.4 0" in="shadowBlurOuter1" result="shadowMatrixOuter1"/>
      <feOffset dy="2" in="SourceAlpha" result="shadowOffsetOuter2"/>
      <feMorphology radius="15" in="SourceAlpha" result="shadowInner"/>
      <feOffset dy="2" in="shadowInner" result="shadowInner"/>
      <feComposite in="shadowOffsetOuter2" in2="shadowInner" operator="out" result="shadowOffsetOuter2"/>
      <feGaussianBlur stdDeviation="2.5" in="shadowOffsetOuter2" result="shadowBlurOuter2"/>
      <feColorMatrix values="0 0 0 0 0.149019608 0 0 0 0 0.149019608 0 0 0 0 0.149019608 0 0 0 0.35 0" in="shadowBlurOuter2" result="shadowMatrixOuter2"/>
      <feMerge>
        <feMergeNode in="shadowMatrixOuter1"/>
        <feMergeNode in="shadowMatrixOuter2"/>
      </feMerge>
    </filter>
    <mask id="d" width="256" height="256" x="0" y="0" fill="#fff">
      <use xlink:href="#a"/>
    </mask>
  </defs>
  <g fill="none" fill-rule="evenodd">
    <path fill="url(#b)" d="M0 34.992C0 15.666 15.677 0 34.992 0h186.016C240.334 0 256 15.677 256 34.992v186.016C256 240.334 240.323 256 221.008 256H34.992C15.666 256 0 240.323 0 221.008V34.992zM68 160c17.673 0 32-14.327 32-32 0-17.673-14.327-32-32-32-17.673 0-32 14.327-32 32 0 17.673 14.327 32 32 32zm120 0c17.673 0 32-14.327 32-32 0-17.673-14.327-32-32-32-17.673 0-32 14.327-32 32 0 17.673 14.327 32 32 32z" transform="translate(17 17)"/>
    <g transform="translate(17 17)">
      <use fill="#000" filter="url(#c)" xlink:href="#a"/>
      <use stroke="#FFF" stroke-opacity=".3" stroke-width="30" mask="url(#d)" xlink:href="#a"/>
    </g>
  </g>
</svg>
